X:5126
T:The Minaun Jig
M:6/8
R:Jig
L:1/8
Q:180
C:Aidan Crossey
K:A
|:aec BGE|CEG Bcd|cBA cde|fag e3|
aec BGE|CEG Bcd|cBA cde|fag a3:||
|:A2e cee|A2e cee|dfe dcB|GBA GFE|
cAA dBB|ecc fga|edc BAG|cAA A3:||
